!!!!SEGMENT: pl-sa--359-a-vii-119--003_anonim--mottetto-de-nativitate-pastuszkowie-z-wesollolscia.krn
!!!cenid: 17xx:1348
!!!COM: Anonim
!!!COM-rismid: pe30004985
!!!CDT:
!!!CNT:
!!!OPR: Mottetto de Nativitate
!!!OTL: Pastuszkowie z wesołością
!!!OMV: 003
!!!PDT: 1726
!!!AGN: Sacred; Motet; Christmas
!!!SMS-siglum: PL-SA
!!!SMS-shelfmark: 359/A VII 119
!!!SMS-shelfwork: 001-003 M
!!!SMS-variant: Violino 2do PL-SA 359/A VII 119:12-13
!!!SMS-altvar: Violino 2do PL-SA 359/A VII 119:14-15
!!!NIFC-rismid: 1001069972
!!!URL-scan: http://bc.bdsandomierz.pl/dlibra/publication/1663/edition/1631/content
!!!ONB-nifc: UWAGA: części Mottetto; 1. Gloria in excelsis, 2. Kuba Michał czy śpicie, 3. Pastuszkowie z wesołością, 4. Idźmy prędko
!!!key:
**kern	**fba	**kern	**kern	**dynam	**kern	**kern	**kern	**kern	**kern	**text	**kern	**text	**kern	**kern
*part11	*	*part10	*part9	*part9	*part8	*part7	*part6	*part5	*part4	*part4	*part3	*part3	*part2	*part1
*staff11	*	*staff10	*staff9	*	*staff8	*staff7	*staff6	*staff5	*staff4	*staff4	*staff3	*staff3	*staff2	*staff1
*Iorgan	*	*Iviola	*Ivioln	*	*Ivioln	*Ibass	*Itenor	*Ialto	*Ivox	*	*Ivox	*	*Iempty	*Iempty
*I"Organo	*	*I"Viola	*I"Violino 2do	*	*I"[Violino Primo]	*I"Basso	*I"Tenore	*I"Alto	*I"Canto 2do	*	*I"Canto Primo	*	*I"Clarino 2do	*I"Clarino 1mo
*I'Org.	*	*I'V-la	*I'V-no II	*	*I'V-no I	*I'B.	*I'T.	*I'A.	*I'C.II	*	*I'C. I	*	*I'Cl-no II	*I'Cl-no I
*ICklav	*	*ICstr	*ICstr	*	*ICstr	*ICvox	*ICvox	*ICvox	*ICvox	*	*ICvox	*	*ICww	*ICww
*clefF4	*	*clefF4	*clefG2	*	*clefG2	*clefF4	*clefC4	*clefC3	*clefC1	*	*clefC1	*	*clefG2	*clefG2
*k[]	*	*k[]	*k[]	*	*k[]	*k[]	*k[]	*k[]	*k[]	*	*k[]	*	*k[]	*k[]
*C:	*	*C:	*C:	*	*C:	*C:	*C:	*C:	*C:	*	*C:	*	*C:	*C:
*M12/8	*	*M12/8	*M12/8	*	*M12/8	*M12/8	*M12/8	*M12/8	*M12/8	*	*M12/8	*	*M12/8	*M12/8
=1	=1	=1	=1	=1	=1	=1	=1	=1	=1	=1	=1	=1	=1	=1
!LO:TX:t=P:problem=all\right&colon; global	!	!	!LO:TX:t=P:problem=all\right&colon; global	!	!	!	!	!	!	!	!	!	!	!
!LO:TX:b:rj:t=solo	!	!LO:TX:t=P:problem=all\right&colon; global	!	!LO:DY:a:t=piano	!LO:TX:t=P:problem=źródło wybrakowane, brak części partii Violino I	!LO:TX:a:t=Paſtuszkowie Tacet	!LO:TX:a:t=Paſtuszkowie Tacet	!LO:TX:a:t=Paſtuszkowie Tacet	!LO:TX:t=P:problem=all\right&colon; global	!	!LO:TX:t=P:problem=all\right&colon; global	!	!LO:TX:a:t=Paſtuszkowie Tacet	!LO:TX:a:t=Paſtuszkowie Tacet
4C/	.	4C/	8e/L	p	1.ryy	1.ryy	1.ryy	1.ryy	(8cc\L	Pa-	(8ee\L	Pa-	1.ryy	1.ryy
.	.	.	8d/	.	.	.	.	.	8dd\J)	.	8ff\J)	.	.	.
8BB/	6 4	8BB/	8e/J	.	.	.	.	.	8ee\	ſtu-	8gg\	ſtu-	.	.
4AA/	.	4AA/	8c/L	.	.	.	.	.	(8a\L	ſzko-	(8cc\L	ſzko-	.	.
.	.	.	8B/	.	.	.	.	.	8b\J)	.	8dd\J)	.	.	.
8EE/	6	8EE/	8c/J	.	.	.	.	.	8cc\	-wie	8ee\	-wie	.	.
4FF/	6 5	4FF/	8A/L	.	.	.	.	.	(8dd\L	z we-	(8ff\L	z we-	.	.
.	.	.	8B/	.	.	.	.	.	8cc\J)	.	8ee\J)	.	.	.
8GG/	3	8GG/	8B/J	.	.	.	.	.	8b\	-so-	8dd\	-so-	.	.
4C/	.	4C/	4c/	.	.	.	.	.	(8cc\L	-ło-	(8ee\L	-ło-	.	.
.	.	.	.	.	.	.	.	.	8b\J)	.	8dd\J)	.	.	.
8r	.	8r	8c/	.	.	.	.	.	8cc\	-scią	8cc\	-scią	.	.
=2	=2	=2	=2	=2	=2	=2	=2	=2	=2	=2	=2	=2	=2	=2
!LO:TX:a:t=Tutti	!	!	!	!	!	!	!	!	!	!	!	!	!	!
4c\	.	4c\	8e/L	.	1.ryy	1.ryy	1.ryy	1.ryy	(8cc\L	Po-	(8ee\L	po-	1.ryy	1.ryy
.	.	.	8d/	.	.	.	.	.	8dd\J)	.	8ff\J)	.	.	.
8B\	6 4	8B\	8e/J	.	.	.	.	.	8ee\	-spie-	8gg\	-spie-	.	.
4A\	.	4A\	8c/L	.	.	.	.	.	(8a\L	-ſzay-	(8cc\L	-ſzay-	.	.
.	.	.	8B/	.	.	.	.	.	8b\J)	.	8dd\J)	.	.	.
8E\	6	8E\	8c/J	.	.	.	.	.	8cc\	-cie	8ee\	-cie	.	.
8F\L	.	8F\L	8A/L	.	.	.	.	.	(8dd\L	y	(8ff\L	y	.	.
8D\	.	8D\	8B/	.	.	.	.	.	8cc\J)	.	8ee\J)	.	.	.
8G\J	7	8G\J	8B/J	.	.	.	.	.	8b\	z ufn-	8dd\	z uf-	.	.
4C/	.	4C/	4c/	.	.	.	.	.	(8cc\L	-no-	(8ee\L	-no-	.	.
.	.	.	.	.	.	.	.	.	8b\J)	.	8dd\J)	.	.	.
8r	.	8r	8c/	.	.	.	.	.	8cc\	-scią	8cc\	-scią	.	.
=3	=3	=3	=3	=3	=3	=3	=3	=3	=3	=3	=3	=3	=3	=3
4G\	.	4G\	8B/L	.	1.ryy	1.ryy	1.ryy	1.ryy	(8g\L	Do	(8b\L	Do	1.ryy	1.ryy
.	.	.	8c/	.	.	.	.	.	8a\J)	.	8cc\J)	.	.	.
8r	.	8r	8d/J	.	.	.	.	.	8b\	Be-	8dd\	Be-	.	.
4G\	.	4G\	8d/L	.	.	.	.	.	(8b\L	-thle-	(8dd\L	-thle-	.	.
.	.	.	8c/	.	.	.	.	.	8a\J)	.	8cc\J)	.	.	.
8r	.	8r	8d/J	.	.	.	.	.	8b\	-em	8dd\	-em	.	.
!	!	!	!	!	!	!	!	!	!LO:LB:g=original	!	!	!	!	!
4G\	6 4	4G\	8e/L	.	.	.	.	.	8cc\L	Na-	(8ee\L	na-	.	.
.	.	.	8d/	.	.	.	.	.	8b\J	.	8dd\J)	.	.	.
8r	.	8r	8c/J	.	.	.	.	.	8a\	-ro-	8cc\	-ro-	.	.
!	!	!	!	!	!	!	!	!	!	!	!LO:LB:g=original	!	!	!
4G\	.	4G\	8d/L	.	.	.	.	.	8b\L	-dzo-	(8dd\L	-dzo-	.	.
.	.	.	8c/	.	.	.	.	.	8a\J	.	8cc\J)	.	.	.
8r	.	8r	8B/J	.	.	.	.	.	8g/	-ny	8b\	-ny	.	.
!LO:LB:g=original	!	!	!	!	!	!	!	!	!	!	!	!	!	!
=4	=4	=4	=4	=4	=4	=4	=4	=4	=4	=4	=4	=4	=4	=4
4G\	.	4G\	8B/L	.	1.ryy	1.ryy	1.ryy	1.ryy	8g\	Bog	8b\	Bog	1.ryy	1.ryy
.	.	.	8c/	.	.	.	.	.	8a\	y	8cc\	y	.	.
8r	.	8r	8d/J	.	.	.	.	.	8b\	krol	8dd\	krol	.	.
!	!	!LO:LB:g=original	!	!	!	!	!	!	!	!	!	!	!	!
4G\	.	4G\	8d/L	.	.	.	.	.	(8b\L	w zło-	(8dd\L	w zło-	.	.
.	.	.	8c/	.	.	.	.	.	8a\J)	.	8cc\J)	.	.	.
8r	.	8r	8d/J	.	.	.	.	.	8b\	-bie	8dd\	-bie	.	.
!	!	!	!LO:LB:g=original	!	!	!	!	!	!	!	!	!	!	!
4G\	6 4	4G\	8e/L	.	.	.	.	.	8cc\L	po-	(8ee\L	po-	.	.
.	.	.	8d/	.	.	.	.	.	8b\J	.	8dd\J)	.	.	.
8r	.	8r	8c/J	.	.	.	.	.	8a\	-ło-	8cc\	-ło-	.	.
4G\	.	4G\	8d/L	.	.	.	.	.	8b\L	-zo-	(8dd\L	żo-	.	.
.	.	.	8c/	.	.	.	.	.	8a\J	.	8cc\J)	.	.	.
8r	.	8r	8B/J	.	.	.	.	.	8g/	-ny.	8b\	-ny.	.	.
=5	=5	=5	=5	=5	=5	=5	=5	=5	=5	=5	=5	=5	=5	=5
!	!	!LO:TX:b:t=repete	!	!	!	!	!	!	!	!	!	!	!	!
4c\	.	4c\	8e/L	.	1.ryy	1.ryy	1.ryy	1.ryy	8cc\L	Cho-	(8ee\L	Cho-	1.ryy	1.ryy
.	.	.	8d/	.	.	.	.	.	8dd\J	.	8ff\J)	.	.	.
8B\	6 4	8B\	8e/J	.	.	.	.	.	8ee\	ciaſz	8gg\	ciaſz	.	.
4A\	.	4A\	8c/L	.	.	.	.	.	8a\L	le-	(8cc\L	le-	.	.
.	.	.	8B/	.	.	.	.	.	8b\J	.	8dd\J)	.	.	.
8E\	6	8E\	8c/J	.	.	.	.	.	8cc\	-zy	8ee\	-zy	.	.
8F\L	.	8F\L	8A/L	.	.	.	.	.	8dd\L	w ma-	(8ff\L	w ma-	.	.
8D\	.	8D\	8B/	.	.	.	.	.	8ee\J	.	8gg\J)	.	.	.
8G\J	7	8G\J	8G/J	.	.	.	.	.	8dd\	-łym	8ff\	-łym	.	.
4C/	.	4C/	4A/	.	.	.	.	.	4cc\	cie-	4ee\	cie-	.	.
8G\	.	8G\	8G/	.	.	.	.	.	8b\	-le	8dd\	-le	.	.
=6	=6	=6	=6	=6	=6	=6	=6	=6	=6	=6	=6	=6	=6	=6
4c\	.	4c\	8e/L	.	1.ryy	1.ryy	1.ryy	1.ryy	8cc\L	Od-	(8ee\L	Od-	1.ryy	1.ryy
.	.	.	8d/	.	.	.	.	.	8dd\J	.	8ff\J)	.	.	.
8B\	6 4	8B\	8e/J	.	.	.	.	.	8ee\	-day	8gg\	-day-	.	.
!	!	!	!	!	!	!	!	!	!LO:LB:g=original	!	!	!	!	!
4A\	.	4A\	8c/L	.	.	.	.	.	8a\L	cie	8cc\L	-cie	.	.
.	.	.	8B/	.	.	.	.	.	8b\J	.	8dd\J	.	.	.
8E\	6	8E\	8c/J	.	.	.	.	.	8cc\	mu	8ee\	mu	.	.
!	!	!	!	!	!	!	!	!	!	!	!LO:LB:g=original	!	!	!
4F\	.	4F\	8A/	.	.	.	.	.	8b\L	po-	(8dd\L	po-	.	.
.	.	.	4B/	.	.	.	.	.	8a\J	.	8cc\J)	.	.	.
8G\	.	8G\	.	.	.	.	.	.	8b\	-kłon	8dd\	-kłon	.	.
4C/	.	4C/	4.c/	.	.	.	.	.	4cc\	ſmie-	4cc\	ſmie-	.	.
8C/	.	8C/	.	.	.	.	.	.	8cc\	-le.	8cc\	-le	.	.
=7	=7	=7	=7	=7	=7	=7	=7	=7	=7	=7	=7	=7	=7	=7
!	!	!LO:TX:t=P:problem=powtórzenie taktów 5-6	!	!	!	!	!	!	!	!	!	!	!	!
4c\	.	4c\yy	8e/L	.	1.ryy	1.ryy	1.ryy	1.ryy	8cc\L	Cho-	(8ee\L	Cho-	1.ryy	1.ryy
.	.	.	8d/	.	.	.	.	.	8dd\J	.	8ff\J)	.	.	.
8B\	6 4	8B\yy	8e/J	.	.	.	.	.	8ee\	ciaſz	8gg\	ciaſz	.	.
4A\	.	4A\yy	8c/L	.	.	.	.	.	8a\L	le-	(8cc\L	le-	.	.
.	.	.	8B/	.	.	.	.	.	8b\J	.	8dd\J)	.	.	.
8E\	6	8E\yy	8c/J	.	.	.	.	.	8cc\	-ży	8ee\	-zy	.	.
8F\L	.	8F\Lyy	8A/L	.	.	.	.	.	8dd\L	w ma-	(8ff\L	w ma-	.	.
8D\	.	8D\yy	8B/	.	.	.	.	.	8ee\J	.	8gg\J)	.	.	.
8G\J	7	8G\Jyy	8G/J	.	.	.	.	.	8dd\	-łym	8ff\	-łum	.	.
4C/	.	4C/yy	4A/	.	.	.	.	.	4cc\	cie-	4ee\	cie-	.	.
!	!	!	!LO:TX:b:t=Verte citissime	!	!	!	!	!	!	!	!	!	!	!
8G\	.	8G\yy	8G/	.	.	.	.	.	8b\	-le	8dd\	-le	.	.
!LO:PB:g=original	!	!	!LO:PB:g=original	!	!	!	!	!	!	!	!	!	!	!
=8	=8	=8	=8	=8	=8	=8	=8	=8	=8	=8	=8	=8	=8	=8
4c\	.	4c\yy	8e/L	.	1.ryy	1.ryy	1.ryy	1.ryy	8cc\L	Od-	(8ee\L	Od-	1.ryy	1.ryy
.	.	.	8d/	.	.	.	.	.	8dd\J	.	8ff\J)	.	.	.
8B\	.	8B\yy	8e/J	.	.	.	.	.	8ee\	-day-	8gg\	-day-	.	.
4A\	.	4A\yy	8c/L	.	.	.	.	.	8a\L	-cie	(8cc\L	-cie	.	.
.	.	.	8B/	.	.	.	.	.	8b\J	.	8dd\J)	.	.	.
8E\	.	8E\yy	8c/J	.	.	.	.	.	8cc\	mu	8ee\	mu	.	.
4F\	.	4F\yy	8A/	.	.	.	.	.	8b\L	pok-	(8dd\L	pok-	.	.
.	.	.	4B/	.	.	.	.	.	8a\J	.	8cc\J)	.	.	.
8G\	.	8G\yy	.	.	.	.	.	.	8b\	-łon	8dd\	-łon	.	.
4C/	.	4C/yy	4.c/	.	.	.	.	.	4cc\	ſmie-	4cc\	ſmie-	.	.
!	!	!LO:TX:b:t=Verte	!	!	!	!	!	!	!LO:TX:b:t=Verte	!	!LO:TX:b:t=Verte	!	!	!
8C/	.	8C/yy	.	.	.	.	.	.	8cc\	-le.	8cc\	-le	.	.
==	==	==	==	==	==	==	==	==	==	==	==	==	==	==
*-	*-	*-	*-	*-	*-	*-	*-	*-	*-	*-	*-	*-	*-	*-
!!!system-decoration: [(s1,s2)][(s3,s4,s5,s6,s7)][(s8,s9,s10)][(s11)]
!!!AIN: 1 alto 1 bass 2 empty 1 organ 1 tenor 1 viola 2 violn 2 vox
!!!ENC: Andrzej Gręziak
!!!END: 2020-11-28
!!!ENC: Leszek Kubiak
!!!END: 2021-12-30
